svg/u1f941.svg

<svg viewBox="0 0 128 128" xmlns="http://www.w3.org/2000/svg">
  <g>
    <g>
      <path d="M6.15,99.42c0-9.65,25.9-14.93,57.85-14.93s57.85,5.28,57.85,14.93C121.85,113,95.95,124,64,124 S6.15,113,6.15,99.42z" fill="#94D1E0"/>
      <path d="M11.15,50.68v45.55h0.03c0.67,11.85,23.92,21.37,52.52,21.37s51.85-9.52,52.52-21.37h0.03V50.68 H11.15z" fill="#E63F33"/>
      <path d="M23.43,75.64c10.89,4.54,25.19,7.04,40.27,7.04s29.42-2.41,40.27-7.04 c9.75-4.16,10.74-6.92,12.28-8.51v-6.05c-2.85,3.78-7.66,7.17-14.23,9.9c-10.29,4.29-23.9,6.65-38.33,6.65 s-28.04-2.36-38.33-6.65c-6.56-2.74-11.37-6.12-14.23-9.9v7.37l5.05,3.56C18.36,73.32,20.77,74.53,23.43,75.64z" fill="#BDBDBD"/>
      <line fill="none" stroke="#94D1E0" stroke-width="4.0928" stroke-linecap="round" stroke-miterlimit="10" x1="43.15" x2="43.15" y1="76.8" y2="117.29"/>
      <line fill="none" stroke="#94D1E0" stroke-width="4.0928" stroke-linecap="round" stroke-miterlimit="10" x1="84.25" x2="84.25" y1="76.8" y2="117.29"/>
      <path d="M42.01,106.05c-0.93-0.34-1.76-1.05-2.24-1.91c-0.85-1.53-0.78-3.49-0.81-5.45 c-0.06-4.27,1.12-5.33,2.51-5.33h3.35c2.51,1.03,2.51,3.1,2.51,4.49c0,1.45,0,0.93,0,2.38c0,2.1,0.11,4.2-1.9,5.53 C45.24,105.89,43.68,106.66,42.01,106.05z" fill="#94D1E0"/>
      <path d="M85.36,106.05c0.9-0.41,1.69-1.1,2.24-1.91c1.19-1.75,0.78-3.49,0.81-5.45 c0.06-4.04-1.12-5.33-2.51-5.33h-3.35c-2.51,1.03-2.51,3.1-2.51,4.49c0,1.45,0,0.93,0,2.38c0,2.1,0.04,3.99,1.9,5.53 C82.8,106.47,84.45,106.47,85.36,106.05z" fill="#94D1E0"/>
      <path d="M120.33,83.09c-0.1-4.71-0.96-5.52-3.2-5.33c0-8.64,0-16.43,0-16.43l-3.3,2.04l0.24,39.24 c0,0,3.05,0.94,3.05-2.35c0-0.97,0-4.75,0-9.6C120.38,89.52,120.55,86.05,120.33,83.09z" fill="#94D1E0"/>
      <path d="M13.49,62.86l-3.3-2.04c0,0,0,8.1,0,16.94c-2.24-0.19-3.1,0.62-3.2,5.33c0,1.96-0.33,3.7,0.7,5.45 c0.59,0.98,1.44,1.81,2.5,2.12c0,4.66,0,8.27,0,9.21c0,3.29,3.05,2.35,3.05,2.35L13.49,62.86z" fill="#94D1E0"/>
      <g>
        <path d="M119.16,52.5C117.53,33.25,82.8,27.82,63.7,27.88C44.77,27.72,8.41,33.57,8.26,53.34 C-2.17,71.96,30.89,84.42,64,84.5C97.22,84.58,131.53,71.34,119.16,52.5z" fill="#94D1E0"/>
        <ellipse cx="63.7" cy="52.69" rx="52.55" ry="21.9" fill="#FFCC80"/>
        <ellipse cx="63.7" cy="54.72" rx="48.51" ry="20.21" fill="#FEF6E0"/>
      </g>
      <polygon points="53.91,67.08 18.96,43.86 24.48,41.19 55.54,64.79 " fill="#FFCC80"/>
      <polygon points="74.35,67.08 109.29,43.86 103.78,41.19 72.71,64.79 " fill="#FFCC80"/>
      <path d="M57.64,62.65c-1.41-1.91-3.7-2.34-3.99-2.87l-1.14-2.04c-0.39-0.7-0.68-1.14-1-1.56L11.87,5.14 C10.93,3.92,9.2,3.64,7.91,4.5C6.48,5.47,6.19,7.46,7.29,8.79l40.02,50.41c0.53,0.66,1.13,1.26,1.8,1.77l1.68,1.29 c0.45,0.34,0.37,2.51,1.96,3.97c1.32,1.21,3.38,1.65,4.69,0.27C58.45,65.45,58.47,63.77,57.64,62.65z" fill="#BA793E"/>
      <path d="M70.83,62.65c1.41-1.91,3.7-2.34,3.99-2.87l1.14-2.04c0.39-0.7,0.68-1.14,1-1.56L116.6,5.14 c0.95-1.22,2.68-1.5,3.96-0.64c1.43,0.97,1.72,2.96,0.62,4.29L81.16,59.21c-0.53,0.66-1.13,1.26-1.8,1.77l-1.68,1.29 c-0.45,0.34-0.37,2.51-1.96,3.97c-1.32,1.21-3.38,1.65-4.69,0.27C70.02,65.45,70,63.77,70.83,62.65z" fill="#BA793E"/>
    </g>
    <path d="M19.05,72.24c-5.81-3.61-8.48-7.26-8.01-8.47c0.3-0.77,1.41-0.77,1.94-0.14 c5.25,6.18,16.01,10.53,23.78,11.97c0.81,0.15,1.43,1.66-0.75,1.87C34.12,77.64,26.72,77.01,19.05,72.24z" fill="#FFFFFF"/>
    <path d="M83.6,104.02c-0.66,0.27-1.4-0.53-1.71-1.58c-0.31-1.05-0.49-4.71-0.31-5.78 c0.17-1.06,0.39-1.71,1.22-1.71s1.5,0.67,1.5,1.5c0,0-0.1,4-0.05,4.97C84.3,102.41,84.26,103.75,83.6,104.02z" fill="#FFFFFF"/>
    <path d="M42.45,104.02c-0.66,0.27-1.4-0.53-1.71-1.58s-0.49-4.71-0.31-5.78s0.39-1.71,1.22-1.71 s1.5,0.67,1.5,1.5c0,0-0.1,4-0.05,4.97C43.15,102.41,43.11,103.75,42.45,104.02z" fill="#FFFFFF"/>
  </g>
</svg>

<svg viewBox="0 0 128 128" xmlns="http://www.w3.org/2000/svg">
  <defs/>
  <path d="M6.15,99.42 C6.15,89.77 32.05,84.49 64,84.49 C95.95,84.49 121.85,89.77 121.85,99.42 C121.85,113 95.95,124 64,124 C32.05,124 6.15,113 6.15,99.42 Z" fill="#94D1E0"/>
  <path d="M11.15,50.68 L11.15,96.23 L11.18,96.23 C11.85,108.08 35.1,117.6 63.7,117.6 C92.3,117.6 115.55,108.08 116.22,96.23 L116.25,96.23 L116.25,50.68 L11.15,50.68 Z" fill="#E63F33"/>
  <path d="M23.43,75.64 C34.32,80.18 48.62,82.68 63.7,82.68 C78.78,82.68 93.12,80.27 103.97,75.64 C113.72,71.48 114.71,68.72 116.25,67.13 L116.25,61.08 C113.4,64.86 108.59,68.25 102.02,70.98 C91.73,75.27 78.12,77.63 63.69,77.63 C49.26,77.63 35.65,75.27 25.36,70.98 C18.8,68.24 13.99,64.86 11.13,61.08 L11.13,68.45 L16.18,72.01 C18.36,73.32 20.77,74.53 23.43,75.64 Z" fill="#BDBDBD"/>
  <path d="M45.196,76.8 L45.196,117.29 Q45.196,119.336 43.15,119.336 Q41.104,119.336 41.104,117.29 L41.104,76.8 Q41.104,74.754 43.15,74.754 Q45.196,74.754 45.196,76.8 Z" fill="#94D1E0"/>
  <path d="M86.296,76.8 L86.296,117.29 Q86.296,119.336 84.25,119.336 Q82.204,119.336 82.204,117.29 L82.204,76.8 Q82.204,74.754 84.25,74.754 Q86.296,74.754 86.296,76.8 Z" fill="#94D1E0"/>
  <path d="M42.01,106.05 C41.08,105.71 40.25,105 39.77,104.14 C38.92,102.61 38.99,100.65 38.96,98.69 C38.9,94.42 40.08,93.36 41.47,93.36 L44.82,93.36 C47.33,94.39 47.33,96.46 47.33,97.85 C47.33,99.3 47.33,98.78 47.33,100.23 C47.33,102.33 47.44,104.43 45.43,105.76 C45.24,105.89 43.68,106.66 42.01,106.05 Z" fill="#94D1E0"/>
  <path d="M85.36,106.05 C86.26,105.64 87.05,104.95 87.6,104.14 C88.79,102.39 88.38,100.65 88.41,98.69 C88.47,94.65 87.29,93.36 85.9,93.36 L82.55,93.36 C80.04,94.39 80.04,96.46 80.04,97.85 C80.04,99.3 80.04,98.78 80.04,100.23 C80.04,102.33 80.08,104.22 81.94,105.76 C82.8,106.47 84.45,106.47 85.36,106.05 Z" fill="#94D1E0"/>
  <path d="M120.33,83.09 C120.23,78.38 119.37,77.57 117.13,77.76 C117.13,69.12 117.13,61.33 117.13,61.33 L113.83,63.37 L114.07,102.61 C114.07,102.61 117.12,103.55 117.12,100.26 C117.12,99.29 117.12,95.51 117.12,90.66 C120.38,89.52 120.55,86.05 120.33,83.09 Z" fill="#94D1E0"/>
  <path d="M13.49,62.86 L10.19,60.82 C10.19,60.82 10.19,68.92 10.19,77.76 C7.95,77.57 7.09,78.38 6.99,83.09 C6.99,85.05 6.66,86.79 7.69,88.54 C8.28,89.52 9.13,90.35 10.19,90.66 C10.19,95.32 10.19,98.93 10.19,99.87 C10.19,103.16 13.24,102.22 13.24,102.22 L13.49,62.86 Z" fill="#94D1E0"/>
  <path d="M119.16,52.5 C117.53,33.25 82.8,27.82 63.7,27.88 C44.77,27.72 8.41,33.57 8.26,53.34 C-2.17,71.96 30.89,84.42 64,84.5 C97.22,84.58 131.53,71.34 119.16,52.5 Z" fill="#94D1E0"/>
  <path d="M116.25,52.69 A52.55 21.9 0 1 1 11.15,52.69 A52.55 21.9 0 1 1 116.25,52.69 Z" fill="#FFCC80"/>
  <path d="M112.21,54.72 A48.51 20.21 0 1 1 15.19,54.72 A48.51 20.21 0 1 1 112.21,54.72 Z" fill="#FEF6E0"/>
  <path d="M53.91,67.08 L18.96,43.86 L24.48,41.19 L55.54,64.79 Z" fill="#FFCC80"/>
  <path d="M74.35,67.08 L109.29,43.86 L103.78,41.19 L72.71,64.79 Z" fill="#FFCC80"/>
  <path d="M57.64,62.65 C56.23,60.74 53.94,60.31 53.65,59.78 L52.51,57.74 C52.12,57.04 51.83,56.6 51.51,56.18 L11.87,5.14 C10.93,3.92 9.2,3.64 7.91,4.5 C6.48,5.47 6.19,7.46 7.29,8.79 L47.31,59.2 C47.84,59.86 48.44,60.46 49.11,60.97 L50.79,62.26 C51.24,62.6 51.16,64.77 52.75,66.23 C54.07,67.44 56.13,67.88 57.44,66.5 C58.45,65.45 58.47,63.77 57.64,62.65 Z" fill="#BA793E"/>
  <path d="M70.83,62.65 C72.24,60.74 74.53,60.31 74.82,59.78 L75.96,57.74 C76.35,57.04 76.64,56.6 76.96,56.18 L116.6,5.14 C117.55,3.92 119.28,3.64 120.56,4.5 C121.99,5.47 122.28,7.46 121.18,8.79 L81.16,59.21 C80.63,59.87 80.03,60.47 79.36,60.98 L77.68,62.27 C77.23,62.61 77.31,64.78 75.72,66.24 C74.4,67.45 72.34,67.89 71.03,66.51 C70.02,65.45 70,63.77 70.83,62.65 Z" fill="#BA793E"/>
  <path d="M19.05,72.24 C13.24,68.63 10.57,64.98 11.04,63.77 C11.34,63 12.45,63 12.98,63.63 C18.23,69.81 28.99,74.16 36.76,75.6 C37.57,75.75 38.19,77.26 36.01,77.47 C34.12,77.64 26.72,77.01 19.05,72.24 Z" fill="#FFFFFF"/>
  <path d="M83.6,104.02 C82.94,104.29 82.2,103.49 81.89,102.44 C81.58,101.39 81.4,97.73 81.58,96.66 C81.75,95.6 81.97,94.95 82.8,94.95 C83.63,94.95 84.3,95.62 84.3,96.45 C84.3,96.45 84.2,100.45 84.25,101.42 C84.3,102.41 84.26,103.75 83.6,104.02 Z" fill="#FFFFFF"/>
  <path d="M42.45,104.02 C41.79,104.29 41.05,103.49 40.74,102.44 C40.43,101.39 40.25,97.73 40.43,96.66 C40.61,95.59 40.82,94.95 41.65,94.95 C42.48,94.95 43.15,95.62 43.15,96.45 C43.15,96.45 43.05,100.45 43.1,101.42 C43.15,102.41 43.11,103.75 42.45,104.02 Z" fill="#FFFFFF"/>
</svg>
